X: 21103
M: 2/4
L: 1/16
K: Bb
V: 1 name="3"
fe |\
d2{e}f2 c2{e}f2 | d2{e}f2 b2ba | g2gf e2ed | c2c2c2 fe |\
d2{e}f2 c2{e}f2 | d2{e}f2 b2ba | gfed cecA | B2B2B2 H|]
ed |\
c2cd e2f2 | d2f2 B2ba | g2gb a2af | b2ag f2ed |\
c2cd e2ef | d2f2 b2ba | gfed cecA | B2B2"^D.C."B2 |]
g2 |\


